lib/svgs/dingding.svg

<svg xmlns="http://www.w3.org/2000/svg" viewBox="0 0 20 20">
    <path fill="#000" fill-rule="evenodd" d="M16.9675224,7.97446383 C16.9675224,8.09935328 16.8707255,8.2867674 16.773763,8.47418152 L16.773763,8.5053639 C16.1919884,9.69221341 14.6730205,12.03473 14.6730205,12.03473 L14.2529051,12.7842266 L16.3536476,12.7842266 L12.3139872,18 L13.2187494,14.4396114 L11.5382877,14.4396114 L12.1200624,12.0970948 C11.6675158,12.1908019 11.1181723,12.3470336 10.4394352,12.5656301 C10.4394352,12.5656301 9.56693877,13.0653478 7.88647712,11.5973771 C7.88647712,11.5973771 6.75535898,10.629284 7.40166492,10.3793452 C7.69255224,10.2856382 8.7589736,10.1607487 9.59920442,10.0358593 C10.7625882,9.87962753 11.4413253,9.81710285 11.4413253,9.81710285 C11.4413253,9.81710285 7.91874277,9.84844514 7.11077761,9.7235557 C6.27054678,9.59850634 5.20412542,8.25558502 4.97793489,7.06873551 C4.97793489,7.06873551 4.62235079,6.41278609 5.72120327,6.72524956 C6.81989029,7.03755313 11.3766285,7.94328145 11.3766285,7.94328145 C11.3766285,7.94328145 5.46258162,6.1630072 5.07489733,5.75699657 C4.68704757,5.31964365 3.91134806,3.41447995 4.0083105,2.22763045 C4.0083105,2.22763045 4.04074162,1.94666918 4.3638946,2.00903395 C4.3638946,2.00903395 8.72670794,3.94553993 11.7322126,5.00734008 C14.7054516,6.06930014 17.3231065,6.60020021 16.9675224,7.97446383"/>
</svg>

<svg xmlns="http://www.w3.org/2000/svg" viewBox="0 0 20 20">
    <path fill="#000" fill-rule="evenodd" d="M16.968 7.974c0 .125-.097.313-.194.5v.031c-.582 1.187-2.101 3.53-2.101 3.53l-.42.75h2.1L12.315 18l.905-3.56h-1.68l.581-2.343c-.452.094-1.002.25-1.68.469 0 0-.873.5-2.554-.969 0 0-1.13-.968-.484-1.218.29-.093 1.357-.218 2.197-.343 1.164-.156 1.842-.219 1.842-.219s-3.522.031-4.33-.093c-.84-.125-1.907-1.468-2.133-2.655 0 0-.356-.656.743-.344 1.099.313 5.656 1.218 5.656 1.218s-5.914-1.78-6.302-2.186c-.388-.437-1.164-2.343-1.067-3.53 0 0 .033-.28.356-.218 0 0 4.363 1.937 7.368 2.998 2.973 1.062 5.591 1.593 5.236 2.967z"/>
</svg>
